X: 6642
T: Ceanngulla, The
R: slide
M: 12/8
K: Dmajor
d2B AFA ded d2A|def gfe fed BAB|
d2B AFA ded d2e|1 f2b afd efe dfe:|2 f2b afd efe def||
~g3 bge ~f3 afd|e2f afe fed BAB|
d2B AFA ded d2e|1 f2b afd efe def:|2 f2b afd efe dfe||

